X: 19357
T: Jack Ryan's
R: polka
M: 2/4
K: Gmajor
|:E|DG GA|B2 AG|EA A2|EA A2|
DG GA|B2 AB|d2 cA|AG G:|
|:A|Bd dc|B2 AG|EA A2|EA A2|
Bd dc|B2 AB|d2 cA|AG G:|

